icon-svg/mealie.svg

<svg xmlns="http://www.w3.org/2000/svg" viewBox="0 0 24 24"><path fill="#44739e" d="M7.504 13.288c.018.015 2.886-2.849 2.886-2.881S5.342 5.333 4.08 4.1c-.462-.45-.862-.82-.885-.82a.7.7 0 0 0-.214.18 3.6 3.6 0 0 0-.752 1.3c-.059.169-.1.308-.1.308a1 1 0 0 1-.026.148A4.2 4.2 0 0 0 2.069 6.9c.213 1.016.527 1.46 2.313 3.264.59.598 3.017 3.021 3.122 3.124m6.896-1.629a.5.5 0 0 1 .2.128 2.094 2.094 0 0 0 3-.136c.391-.338.589-.531 2.5-2.435L22 7.32l-.477-.482c-.26-.267-.48-.48-.486-.474s-.758.752-1.67 1.661l-1.659 1.656-.474-.468a9 9 0 0 1-.476-.489c0-.009.743-.767 1.655-1.679l1.653-1.659-.466-.477a10 10 0 0 0-.486-.476c-.009 0-.764.746-1.676 1.655l-1.664 1.659-.485-.48-.486-.48 1.658-1.658a116 116 0 0 0 1.659-1.677c0-.009-.575-.6-.865-.879l-.1-.095-.965.983c-1.961 2.005-2.832 2.909-3.326 3.46-.095.106-.184.2-.193.207a4 4 0 0 0-.183.21 1.81 1.81 0 0 0-.228 1.777 4 4 0 0 0 .4.738c.012.009.074.074.14.142l.118.124-4.97 4.973-4.97 4.97.723.729.72.731 3.554-3.554 3.552-3.551 3.531 3.53a554 554 0 0 0 3.56 3.54c.015.006 1.4-1.36 1.421-1.416.006-.015-1.581-1.62-3.527-3.566l-3.537-3.539.548-.542c.741-.735.777-.765.877-.765"/></svg>

<?xml version="1.0" encoding="UTF-8"?>
<svg width="24px" fill="#44739e" height="24px" viewBox="0 0 24 24" version="1.1" xmlns="http://www.w3.org/2000/svg" xmlns:xlink="http://www.w3.org/1999/xlink">
            <path d="M 7.505,13.288 C 7.523,13.303 10.39,10.439 10.39,10.407 10.39,10.375 5.343,5.333 4.081,4.1 3.619,3.65 3.219,3.28 3.196,3.28 A 0.674,0.674 0 0 0 2.982,3.46 3.571,3.571 0 0 0 2.23,4.76 C 2.171,4.929 2.13,5.068 2.13,5.068 A 1.126,1.126 0 0 1 2.104,5.216 4.18,4.18 0 0 0 2.07,6.9 c 0.213,1.016 0.527,1.46 2.313,3.264 0.59,0.598 3.017,3.021 3.122,3.124 z M 14.4,11.659 a 0.48,0.48 0 0 1 0.2,0.128 2.094,2.094 0 0 0 3,-0.136 c 0.391,-0.338 0.589,-0.531 2.5,-2.435 L 22,7.32 21.523,6.838 C 21.263,6.571 21.043,6.358 21.037,6.364 21.031,6.37 20.279,7.116 19.367,8.025 L 17.708,9.681 17.234,9.213 c -0.263,-0.258 -0.476,-0.48 -0.476,-0.489 0,-0.009 0.743,-0.767 1.655,-1.679 L 20.066,5.386 19.6,4.909 C 19.342,4.646 19.123,4.433 19.114,4.433 c -0.009,0 -0.764,0.746 -1.676,1.655 l -1.664,1.659 -0.485,-0.48 -0.486,-0.48 1.658,-1.658 c 0.913,-0.913 1.659,-1.668 1.659,-1.677 0,-0.009 -0.575,-0.6 -0.865,-0.879 l -0.1,-0.095 -0.965,0.983 c -1.961,2.005 -2.832,2.909 -3.326,3.46 -0.095,0.106 -0.184,0.2 -0.193,0.207 -0.009,0.007 -0.092,0.1 -0.183,0.21 a 1.814,1.814 0 0 0 -0.228,1.777 4,4 0 0 0 0.4,0.738 c 0.012,0.009 0.074,0.074 0.14,0.142 l 0.118,0.124 -4.969,4.973 -4.97,4.97 0.723,0.729 0.72,0.731 3.554,-3.554 3.551,-3.551 3.531,3.53 c 1.942,1.94 3.545,3.534 3.56,3.54 0.015,0.006 1.4,-1.36 1.421,-1.416 0.006,-0.015 -1.581,-1.62 -3.527,-3.566 l -3.537,-3.539 0.548,-0.542 C 14.264,11.689 14.3,11.659 14.4,11.659 Z"/>

</svg>
